svgs/sharp-solid/chess-pawn-piece.svg

<svg xmlns="http://www.w3.org/2000/svg" viewBox="0 0 256 512"><!--! Font Awesome Pro 6.6.0 by @fontawesome - https://fontawesome.com License - https://fontawesome.com/license (Commercial License) Copyright 2024 Fonticons, Inc. --><path d="M176 240c19.4-14.6 32-37.8 32-64c0-44.2-35.8-80-80-80s-80 35.8-80 80c0 26.2 12.6 49.4 32 64l-8 0-24 0 0 48 24 0 5.7 0L64 384l128 0-13.7-96 5.7 0 24 0 0-48-24 0-8 0zM0 512l256 0 0-32-48-64L48 416 0 480l0 32z"/></svg>

<svg xmlns="http://www.w3.org/2000/svg" viewBox="0 0 256 512"><!--! Font Awesome Pro 6.4.2 by @fontawesome - https://fontawesome.com License - https://fontawesome.com/license (Commercial License) Copyright 2023 Fonticons, Inc. --><path d="M176 240c19.4-14.6 32-37.8 32-64c0-44.2-35.8-80-80-80s-80 35.8-80 80c0 26.2 12.6 49.4 32 64H72 48v48H72h5.7L64 384H192l-13.7-96H184h24V240H184h-8zM0 512H256V480l-48-64H48L0 480v32z"/></svg>
